!!!COM: Music21
!!!OTL: polka_Sord-Cholmcille
!!!OMV: polka_Sord-Cholmcille
**kern
*clefG2
*k[f#c#]
*D:
*M2/4
=1
16dLL
16f#
16a
32bL
32cc#JJJ
=
16ddLL
16dd
32cc#L
32bJ
16aJJ
4ryy
=
16ALL
16c#
16.e
32f#JJk
4ryy
=
16gLL
16g
32f#L
32g
32f#
32eJJJ
4ryy
=
16dLL
16f#
16a
32bL
32cc#JJJ
4ryy
=
16ddLL
16dd
32cc#L
32bJ
16aJJ
4ryy
!!linebreak:original
=
16ALL
16c#
16.e
32f#JJk
4ryy
=
16eLL
16dJ
8dJ
4ryy
=||
*M2/4
16dLL
16f#
16a
32bL
32cc#JJJ
=
16ddLL
16dd
32cc#L
32bJ
16aJJ
4ryy
=
16ALL
16c#
16.e
32f#JJk
4ryy
=
16gLL
16g
32f#L
32g
32f#
32eJJJ
4ryy
!!linebreak:original
=
16dLL
16f#
16a
32bL
32cc#JJJ
4ryy
=
16ddLL
16dd
32cc#L
32bJ
16aJJ
4ryy
=
16ALL
16c#
16.e
32f#JJk
4ryy
=
16eLL
16dJ
8dJ
4ryy
=||
16ff#LL
16a
16ff#
16aJJ
4ryy
=
8.ff#L
32ddLL
32ff#JJJ
4ryy
=
16eeLL
16a
16ee
16aJJ
4ryy
!!linebreak:original
=
8.eeL
32ddLL
32eeJJJ
4ryy
=
16ff#LL
16a
16ff#
16aJJ
4ryy
=
8ff#L
32ggLL
32ff#
32ee
32ddJJJ
4ryy
=
16cc#LL
16a
16b
16cc#JJ
4ryy
=
32ddLLL
32ee
32dd
32cc#JJ
8ddJ
4ryy
=||
16ff#LL
16a
16ff#
16aJJ
4ryy
=
8.ff#L
32ddLL
32ff#JJJ
4ryy
!!linebreak:original
=
16eeLL
16a
16ee
16aJJ
4ryy
=
8.eeL
32ddLL
32eeJJJ
4ryy
=
16ff#LL
16a
16ff#
16aJJ
4ryy
=
8ff#L
32ggLL
32ff#
32ee
32ddJJJ
4ryy
=
16cc#LL
16a
16b
16cc#JJ
4ryy
=
32ddLLL
32ee
32dd
32cc#JJ
8ddJ
4ryy
=||
*-
